dist/assets/img/header/logo.svg

<svg width="266" height="48" viewBox="0 0 266 48" fill="none" xmlns="http://www.w3.org/2000/svg">
<path d="M31.084 16.388H7.756V19.772H32.02V26H0.699997V0.799988H31.948V7.02799H7.756V10.376H31.084V16.388Z" fill="#101010"/>
<path d="M57.7952 0.799988L73.6352 26H65.3552L62.5112 21.32H45.7352L42.9272 26H34.6472L50.4872 0.799988H57.7952ZM54.1232 7.38799L49.0472 15.812H59.1992L54.1232 7.38799Z" fill="#101010"/>
<path d="M101.699 26H76.3548V19.772H101.447C101.687 19.772 101.879 19.7 102.023 19.556C102.191 19.412 102.275 19.22 102.275 18.98V17.18C102.275 16.94 102.191 16.748 102.023 16.604C101.879 16.46 101.687 16.388 101.447 16.388H82.8708C80.4468 16.388 78.5628 15.812 77.2188 14.66C75.8988 13.508 75.2388 11.888 75.2388 9.79999V7.42399C75.2388 5.33599 75.9108 3.71599 77.2548 2.56399C78.5988 1.38799 80.4708 0.799988 82.8708 0.799988H107.315V7.02799H83.1228C82.8828 7.02799 82.6788 7.09999 82.5108 7.24399C82.3668 7.38799 82.2948 7.57999 82.2948 7.81999V9.58399C82.2948 9.82399 82.3668 10.016 82.5108 10.16C82.6788 10.304 82.8828 10.376 83.1228 10.376H101.699C104.099 10.376 105.971 10.964 107.315 12.14C108.659 13.292 109.331 14.9 109.331 16.964V19.448C109.331 21.512 108.659 23.12 107.315 24.272C105.971 25.424 104.099 26 101.699 26Z" fill="#101010"/>
<path d="M110.732 0.799988H119.768L129.704 12.032L139.64 0.799988H148.676L133.232 17.648V26H126.176V17.648L110.732 0.799988Z" fill="#101010"/>
<path d="M200.241 0.799988L187.317 26H182.385L174.969 10.124L167.553 26H162.621L149.697 0.799988H157.977L164.961 16.1L171.909 0.799988H178.029L184.977 16.1L191.961 0.799988H200.241Z" fill="#101010"/>
<path d="M218.949 0.799988L234.789 26H226.509L223.665 21.32H206.889L204.081 26H195.801L211.641 0.799988H218.949ZM215.277 7.38799L210.201 15.812H220.353L215.277 7.38799Z" fill="#101010"/>
<path d="M227.748 0.799988H236.784L246.72 12.032L256.656 0.799988H265.692L250.248 17.648V26H243.192V17.648L227.748 0.799988Z" fill="#101010"/>
<path d="M0.717991 45V35.2H9.64999V45H7.39599V36.53L7.91399 37.048H2.45399L2.97199 36.53V45H0.717991Z" fill="#101010"/>
<path d="M17.2593 45.168C16.4847 45.168 15.766 45.042 15.1033 44.79C14.45 44.538 13.8807 44.1833 13.3953 43.726C12.9193 43.2687 12.546 42.732 12.2753 42.116C12.014 41.5 11.8833 40.828 11.8833 40.1C11.8833 39.372 12.014 38.7 12.2753 38.084C12.546 37.468 12.924 36.9313 13.4093 36.474C13.8947 36.0167 14.464 35.662 15.1173 35.41C15.7707 35.158 16.48 35.032 17.2453 35.032C18.02 35.032 18.7293 35.158 19.3733 35.41C20.0267 35.662 20.5913 36.0167 21.0673 36.474C21.5527 36.9313 21.9307 37.468 22.2013 38.084C22.472 38.6907 22.6073 39.3627 22.6073 40.1C22.6073 40.828 22.472 41.5047 22.2013 42.13C21.9307 42.746 21.5527 43.2827 21.0673 43.74C20.5913 44.188 20.0267 44.538 19.3733 44.79C18.7293 45.042 18.0247 45.168 17.2593 45.168ZM17.2453 43.236C17.684 43.236 18.0853 43.1613 18.4493 43.012C18.8227 42.8627 19.1493 42.648 19.4293 42.368C19.7093 42.088 19.924 41.7567 20.0733 41.374C20.232 40.9913 20.3113 40.5667 20.3113 40.1C20.3113 39.6333 20.232 39.2087 20.0733 38.826C19.924 38.4433 19.7093 38.112 19.4293 37.832C19.1587 37.552 18.8367 37.3373 18.4633 37.188C18.09 37.0387 17.684 36.964 17.2453 36.964C16.8067 36.964 16.4007 37.0387 16.0273 37.188C15.6633 37.3373 15.3413 37.552 15.0613 37.832C14.7813 38.112 14.562 38.4433 14.4033 38.826C14.254 39.2087 14.1793 39.6333 14.1793 40.1C14.1793 40.5573 14.254 40.982 14.4033 41.374C14.562 41.7567 14.7767 42.088 15.0473 42.368C15.3273 42.648 15.654 42.8627 16.0273 43.012C16.4007 43.1613 16.8067 43.236 17.2453 43.236Z" fill="#101010"/>
<path d="M31.067 43.992V37.048H27.707L27.665 38.476C27.637 39.0827 27.595 39.6567 27.539 40.198C27.4924 40.7393 27.4177 41.234 27.315 41.682C27.2124 42.1207 27.077 42.494 26.909 42.802C26.7504 43.11 26.5497 43.3293 26.307 43.46L23.885 43.152C24.221 43.1613 24.4964 43.0447 24.711 42.802C24.935 42.5593 25.1124 42.2187 25.243 41.78C25.3737 41.332 25.467 40.8093 25.523 40.212C25.5884 39.6147 25.635 38.966 25.663 38.266L25.775 35.2H33.307V43.992H31.067ZM23.563 47.03L23.577 43.152H34.679V47.03H32.579V45H25.663V47.03H23.563Z" fill="#101010"/>
<path d="M42.7816 38.42C43.9576 38.42 44.8677 38.686 45.5117 39.218C46.1557 39.7407 46.4776 40.5293 46.4776 41.584C46.4776 42.704 46.1183 43.5533 45.3997 44.132C44.6903 44.7107 43.7056 45 42.4456 45H38.0356V37.048H35.2776V35.2H40.2757V38.42H42.7816ZM42.3196 43.32C42.9076 43.32 43.365 43.1753 43.6917 42.886C44.0276 42.5967 44.1956 42.1767 44.1956 41.626C44.1956 41.0847 44.0276 40.6973 43.6917 40.464C43.365 40.2213 42.9076 40.1 42.3196 40.1H40.2757V43.32H42.3196Z" fill="#101010"/>
<path d="M50.6878 39.148H55.4058V40.912H50.6878V39.148ZM50.8558 43.18H56.1898V45H48.6018V35.2H56.0078V37.02H50.8558V43.18Z" fill="#101010"/>
<path d="M58.5117 45V35.2H60.3877L64.5597 42.116H63.5657L67.6677 35.2H69.5437L69.5577 45H67.4297L67.4157 38.462H67.8217L64.5317 43.964H63.5237L60.1637 38.462H60.6397V45H58.5117Z" fill="#101010"/>
<path d="M79.2022 35.2H81.4702V45H79.2022V35.2ZM74.7502 45H72.4822V35.2H74.7502V45ZM79.3702 40.982H74.5822V39.064H79.3702V40.982Z" fill="#101010"/>
<path d="M84.4156 45V35.2H86.6696V41.584L91.3456 35.2H93.4736V45H91.2336V38.63L86.5576 45H84.4156Z" fill="#101010"/>
<path d="M102.746 45L99.6936 40.282L101.528 39.176L105.322 45H102.746ZM96.3756 45V35.2H98.6296V45H96.3756ZM97.9716 41.052V39.162H101.388V41.052H97.9716ZM101.738 40.352L99.6516 40.1L102.83 35.2H105.224L101.738 40.352Z" fill="#101010"/>
<path d="M106.874 45V35.2H109.128V41.584L113.804 35.2H115.932V45H113.692V38.63L109.016 45H106.874Z" fill="#101010"/>
<path d="M129.813 43.992V37.048H126.453L126.411 38.476C126.383 39.0827 126.341 39.6567 126.285 40.198C126.238 40.7393 126.164 41.234 126.061 41.682C125.958 42.1207 125.823 42.494 125.655 42.802C125.496 43.11 125.296 43.3293 125.053 43.46L122.631 43.152C122.967 43.1613 123.242 43.0447 123.457 42.802C123.681 42.5593 123.858 42.2187 123.989 41.78C124.12 41.332 124.213 40.8093 124.269 40.212C124.334 39.6147 124.381 38.966 124.409 38.266L124.521 35.2H132.053V43.992H129.813ZM122.309 47.03L122.323 43.152H133.425V47.03H131.325V45H124.409V47.03H122.309Z" fill="#101010"/>
<path d="M135.54 45.154C135.372 45.154 135.194 45.14 135.008 45.112C134.83 45.084 134.634 45.0467 134.42 45L134.56 43.082C134.69 43.1193 134.826 43.138 134.966 43.138C135.348 43.138 135.647 42.984 135.862 42.676C136.076 42.3587 136.23 41.906 136.324 41.318C136.417 40.73 136.478 40.016 136.506 39.176L136.646 35.2H144.178V45H141.938V36.53L142.456 37.048H138.13L138.592 36.502L138.508 39.092C138.48 40.0533 138.414 40.9073 138.312 41.654C138.209 42.4007 138.05 43.0353 137.836 43.558C137.621 44.0807 137.327 44.4773 136.954 44.748C136.58 45.0187 136.109 45.154 135.54 45.154Z" fill="#101010"/>
<path d="M152.701 45V41.906L153.261 42.396H150.573C149.724 42.396 148.991 42.256 148.375 41.976C147.759 41.696 147.288 41.29 146.961 40.758C146.635 40.226 146.471 39.5913 146.471 38.854C146.471 38.0887 146.644 37.4353 146.989 36.894C147.344 36.3433 147.839 35.9233 148.473 35.634C149.108 35.3447 149.855 35.2 150.713 35.2H154.941V45H152.701ZM146.499 45L148.935 41.486H151.231L148.893 45H146.499ZM152.701 41.178V36.46L153.261 37.048H150.769C150.125 37.048 149.631 37.1973 149.285 37.496C148.949 37.7947 148.781 38.238 148.781 38.826C148.781 39.3953 148.945 39.834 149.271 40.142C149.598 40.45 150.079 40.604 150.713 40.604H153.261L152.701 41.178Z" fill="#101010"/>
<path d="M162.341 45V35.2H164.595V41.584L169.271 35.2H171.399V45H169.159V38.63L164.483 45H162.341Z" fill="#101010"/>
<path d="M181.049 35.2H183.317V45H181.049V35.2ZM176.597 45H174.329V35.2H176.597V45ZM181.217 40.982H176.429V39.064H181.217V40.982Z" fill="#101010"/>
<path d="M186.263 45V35.2H190.827C191.966 35.2 192.852 35.4193 193.487 35.858C194.121 36.2967 194.439 36.922 194.439 37.734C194.439 38.5367 194.14 39.162 193.543 39.61C192.945 40.0487 192.152 40.268 191.163 40.268L191.429 39.68C192.53 39.68 193.384 39.8993 193.991 40.338C194.598 40.7767 194.901 41.4113 194.901 42.242C194.901 43.1007 194.574 43.7773 193.921 44.272C193.277 44.7573 192.334 45 191.093 45H186.263ZM188.517 43.32H191.009C191.532 43.32 191.928 43.2173 192.199 43.012C192.47 42.8067 192.605 42.4893 192.605 42.06C192.605 41.6493 192.47 41.346 192.199 41.15C191.928 40.9447 191.532 40.842 191.009 40.842H188.517V43.32ZM188.517 39.26H190.631C191.126 39.26 191.499 39.162 191.751 38.966C192.003 38.7607 192.129 38.462 192.129 38.07C192.129 37.678 192.003 37.384 191.751 37.188C191.499 36.9827 191.126 36.88 190.631 36.88H188.517V39.26Z" fill="#101010"/>
<path d="M196.078 45L200.446 35.2H202.686L207.068 45H204.688L201.104 36.348H202L198.402 45H196.078ZM198.262 42.9L198.864 41.178H203.904L204.52 42.9H198.262Z" fill="#101010"/>
<path d="M209.011 45.154C208.843 45.154 208.665 45.14 208.479 45.112C208.301 45.084 208.105 45.0467 207.891 45L208.031 43.082C208.161 43.1193 208.297 43.138 208.437 43.138C208.819 43.138 209.118 42.984 209.333 42.676C209.547 42.3587 209.701 41.906 209.795 41.318C209.888 40.73 209.949 40.016 209.977 39.176L210.117 35.2H217.649V45H215.409V36.53L215.927 37.048H211.601L212.063 36.502L211.979 39.092C211.951 40.0533 211.885 40.9073 211.783 41.654C211.68 42.4007 211.521 43.0353 211.307 43.558C211.092 44.0807 210.798 44.4773 210.425 44.748C210.051 45.0187 209.58 45.154 209.011 45.154Z" fill="#101010"/>
<path d="M220.586 45V35.2H222.84V41.584L227.516 35.2H229.644V45H227.404V38.63L222.728 45H220.586Z" fill="#101010"/>
<path d="M239.002 43.992V37.048H235.642L235.6 38.476C235.572 39.0827 235.53 39.6567 235.474 40.198C235.427 40.7393 235.353 41.234 235.25 41.682C235.147 42.1207 235.012 42.494 234.844 42.802C234.685 43.11 234.485 43.3293 234.242 43.46L231.82 43.152C232.156 43.1613 232.431 43.0447 232.646 42.802C232.87 42.5593 233.047 42.2187 233.178 41.78C233.309 41.332 233.402 40.8093 233.458 40.212C233.523 39.6147 233.57 38.966 233.598 38.266L233.71 35.2H241.242V43.992H239.002ZM231.498 47.03L231.512 43.152H242.614V47.03H240.514V45H233.598V47.03H231.498Z" fill="#101010"/>
<path d="M249.321 45.168C248.546 45.168 247.827 45.042 247.165 44.79C246.511 44.538 245.942 44.1833 245.457 43.726C244.981 43.2687 244.607 42.732 244.337 42.116C244.075 41.5 243.945 40.828 243.945 40.1C243.945 39.372 244.075 38.7 244.337 38.084C244.607 37.468 244.985 36.9313 245.471 36.474C245.956 36.0167 246.525 35.662 247.179 35.41C247.832 35.158 248.541 35.032 249.307 35.032C250.081 35.032 250.791 35.158 251.435 35.41C252.088 35.662 252.653 36.0167 253.129 36.474C253.614 36.9313 253.992 37.468 254.263 38.084C254.533 38.6907 254.669 39.3627 254.669 40.1C254.669 40.828 254.533 41.5047 254.263 42.13C253.992 42.746 253.614 43.2827 253.129 43.74C252.653 44.188 252.088 44.538 251.435 44.79C250.791 45.042 250.086 45.168 249.321 45.168ZM249.307 43.236C249.745 43.236 250.147 43.1613 250.511 43.012C250.884 42.8627 251.211 42.648 251.491 42.368C251.771 42.088 251.985 41.7567 252.135 41.374C252.293 40.9913 252.373 40.5667 252.373 40.1C252.373 39.6333 252.293 39.2087 252.135 38.826C251.985 38.4433 251.771 38.112 251.491 37.832C251.22 37.552 250.898 37.3373 250.525 37.188C250.151 37.0387 249.745 36.964 249.307 36.964C248.868 36.964 248.462 37.0387 248.089 37.188C247.725 37.3373 247.403 37.552 247.123 37.832C246.843 38.112 246.623 38.4433 246.465 38.826C246.315 39.2087 246.241 39.6333 246.241 40.1C246.241 40.5573 246.315 40.982 246.465 41.374C246.623 41.7567 246.838 42.088 247.109 42.368C247.389 42.648 247.715 42.8627 248.089 43.012C248.462 43.1613 248.868 43.236 249.307 43.236Z" fill="#101010"/>
<path d="M256.906 45V35.2H261.47C262.609 35.2 263.495 35.4193 264.13 35.858C264.765 36.2967 265.082 36.922 265.082 37.734C265.082 38.5367 264.783 39.162 264.186 39.61C263.589 40.0487 262.795 40.268 261.806 40.268L262.072 39.68C263.173 39.68 264.027 39.8993 264.634 40.338C265.241 40.7767 265.544 41.4113 265.544 42.242C265.544 43.1007 265.217 43.7773 264.564 44.272C263.92 44.7573 262.977 45 261.736 45H256.906ZM259.16 43.32H261.652C262.175 43.32 262.571 43.2173 262.842 43.012C263.113 42.8067 263.248 42.4893 263.248 42.06C263.248 41.6493 263.113 41.346 262.842 41.15C262.571 40.9447 262.175 40.842 261.652 40.842H259.16V43.32ZM259.16 39.26H261.274C261.769 39.26 262.142 39.162 262.394 38.966C262.646 38.7607 262.772 38.462 262.772 38.07C262.772 37.678 262.646 37.384 262.394 37.188C262.142 36.9827 261.769 36.88 261.274 36.88H259.16V39.26Z" fill="#101010"/>
</svg>

<svg width="266" height="48" fill="none" xmlns="http://www.w3.org/2000/svg"><path d="M31.084 16.388H7.756v3.384H32.02V26H.7V.8h31.248v6.228H7.756v3.348h23.328v6.012zM57.795.8L73.635 26h-8.28l-2.844-4.68H45.735L42.927 26h-8.28L50.487.8h7.308zm-3.672 6.588l-5.076 8.424H59.2l-5.076-8.424zM101.699 26H76.355v-6.228h25.092c.24 0 .432-.072.576-.216a.72.72 0 00.252-.576v-1.8a.72.72 0 00-.252-.576c-.144-.144-.336-.216-.576-.216H82.871c-2.424 0-4.308-.576-5.652-1.728-1.32-1.152-1.98-2.772-1.98-4.86V7.424c0-2.088.672-3.708 2.016-4.86C78.599 1.388 80.47.8 82.87.8h24.444v6.228H83.123a.908.908 0 00-.612.216c-.144.144-.216.336-.216.576v1.764c0 .24.072.432.216.576a.908.908 0 00.612.216h18.576c2.4 0 4.272.588 5.616 1.764 1.344 1.152 2.016 2.76 2.016 4.824v2.484c0 2.064-.672 3.672-2.016 4.824-1.344 1.152-3.216 1.728-5.616 1.728zM110.732.8h9.036l9.936 11.232L139.64.8h9.036l-15.444 16.848V26h-7.056v-8.352L110.732.8zm89.509 0L187.317 26h-4.932l-7.416-15.876L167.553 26h-4.932L149.697.8h8.28l6.984 15.3L171.909.8h6.12l6.948 15.3L191.961.8h8.28zm18.708 0l15.84 25.2h-8.28l-2.844-4.68h-16.776L204.081 26h-8.28L211.641.8h7.308zm-3.672 6.588l-5.076 8.424h10.152l-5.076-8.424zM227.748.8h9.036l9.936 11.232L256.656.8h9.036l-15.444 16.848V26h-7.056v-8.352L227.748.8zM.718 45v-9.8H9.65V45H7.396v-8.47l.518.518h-5.46l.518-.518V45H.718zm16.542.168a6.017 6.017 0 01-2.157-.378 5.18 5.18 0 01-1.708-1.064 4.996 4.996 0 01-1.12-1.61 5.11 5.11 0 01-.392-2.016c0-.728.131-1.4.392-2.016a4.895 4.895 0 011.134-1.61 5.18 5.18 0 011.708-1.064 5.864 5.864 0 012.128-.378c.775 0 1.484.126 2.128.378a5.023 5.023 0 011.694 1.064 4.893 4.893 0 011.54 3.626c0 .728-.135 1.405-.406 2.03a4.892 4.892 0 01-1.134 1.61 5.139 5.139 0 01-1.694 1.05 5.752 5.752 0 01-2.114.378zm-.015-1.932c.439 0 .84-.075 1.204-.224a2.856 2.856 0 001.624-1.638 3.29 3.29 0 00.238-1.274 3.29 3.29 0 00-.238-1.274 2.856 2.856 0 00-.644-.994 2.741 2.741 0 00-.966-.644 3.25 3.25 0 00-1.218-.224 3.25 3.25 0 00-1.218.224c-.364.15-.686.364-.966.644-.28.28-.499.611-.658.994a3.484 3.484 0 00-.224 1.274c0 .457.075.882.224 1.274.159.383.374.714.644.994.28.28.607.495.98.644.374.15.78.224 1.218.224zm13.822.756v-6.944h-3.36l-.042 1.428c-.028.607-.07 1.18-.126 1.722a10.813 10.813 0 01-.224 1.484 4.464 4.464 0 01-.406 1.12c-.159.308-.36.527-.602.658l-2.422-.308c.336.01.611-.107.826-.35.224-.243.401-.583.532-1.022.13-.448.224-.97.28-1.568a28.37 28.37 0 00.14-1.946l.112-3.066h7.532v8.792h-2.24zm-7.504 3.038l.014-3.878h11.102v3.878h-2.1V45h-6.916v2.03h-2.1zm19.219-8.61c1.176 0 2.086.266 2.73.798.644.523.966 1.311.966 2.366 0 1.12-.36 1.97-1.078 2.548-.71.579-1.694.868-2.954.868h-4.41v-7.952h-2.758V35.2h4.998v3.22h2.506zm-.462 4.9c.588 0 1.045-.145 1.372-.434.336-.29.504-.71.504-1.26 0-.541-.168-.929-.504-1.162-.327-.243-.784-.364-1.372-.364h-2.044v3.22h2.044zm8.368-4.172h4.718v1.764h-4.718v-1.764zm.168 4.032h5.334V45h-7.588v-9.8h7.406v1.82h-5.152v6.16zM58.512 45v-9.8h1.876l4.172 6.916h-.994l4.102-6.916h1.876l.014 9.8H67.43l-.014-6.538h.406l-3.29 5.502h-1.008l-3.36-5.502h.476V45h-2.128zm20.69-9.8h2.268V45h-2.268v-9.8zM74.75 45h-2.268v-9.8h2.268V45zm4.62-4.018h-4.788v-1.918h4.788v1.918zM84.416 45v-9.8h2.254v6.384l4.676-6.384h2.128V45h-2.24v-6.37L86.558 45h-2.142zm18.33 0l-3.052-4.718 1.834-1.106L105.322 45h-2.576zm-6.37 0v-9.8h2.254V45h-2.254zm1.596-3.948v-1.89h3.416v1.89h-3.416zm3.766-.7l-2.086-.252 3.178-4.9h2.394l-3.486 5.152zM106.874 45v-9.8h2.254v6.384l4.676-6.384h2.128V45h-2.24v-6.37L109.016 45h-2.142zm22.939-1.008v-6.944h-3.36l-.042 1.428c-.028.607-.07 1.18-.126 1.722a10.829 10.829 0 01-.224 1.484 4.48 4.48 0 01-.406 1.12c-.159.308-.359.527-.602.658l-2.422-.308c.336.01.611-.107.826-.35.224-.243.401-.583.532-1.022.131-.448.224-.97.28-1.568a28.61 28.61 0 00.14-1.946l.112-3.066h7.532v8.792h-2.24zm-7.504 3.038l.014-3.878h11.102v3.878h-2.1V45h-6.916v2.03h-2.1zm13.231-1.876c-.168 0-.346-.014-.532-.042a10.244 10.244 0 01-.588-.112l.14-1.918c.13.037.266.056.406.056.382 0 .681-.154.896-.462.214-.317.368-.77.462-1.358.093-.588.154-1.302.182-2.142l.14-3.976h7.532V45h-2.24v-8.47l.518.518h-4.326l.462-.546-.084 2.59a24.338 24.338 0 01-.196 2.562c-.103.747-.262 1.381-.476 1.904-.215.523-.509.92-.882 1.19-.374.27-.845.406-1.414.406zM152.701 45v-3.094l.56.49h-2.688c-.849 0-1.582-.14-2.198-.42-.616-.28-1.087-.686-1.414-1.218-.326-.532-.49-1.167-.49-1.904 0-.765.173-1.419.518-1.96.355-.55.85-.97 1.484-1.26.635-.29 1.382-.434 2.24-.434h4.228V45h-2.24zm-6.202 0l2.436-3.514h2.296L148.893 45h-2.394zm6.202-3.822V36.46l.56.588h-2.492c-.644 0-1.138.15-1.484.448-.336.299-.504.742-.504 1.33 0 .57.164 1.008.49 1.316.327.308.808.462 1.442.462h2.548l-.56.574zm9.64 3.822v-9.8h2.254v6.384l4.676-6.384h2.128V45h-2.24v-6.37L164.483 45h-2.142zm18.708-9.8h2.268V45h-2.268v-9.8zm-4.452 9.8h-2.268v-9.8h2.268V45zm4.62-4.018h-4.788v-1.918h4.788v1.918zM186.263 45v-9.8h4.564c1.139 0 2.025.22 2.66.658.634.439.952 1.064.952 1.876 0 .803-.299 1.428-.896 1.876-.598.439-1.391.658-2.38.658l.266-.588c1.101 0 1.955.22 2.562.658.607.439.91 1.073.91 1.904 0 .859-.327 1.535-.98 2.03-.644.485-1.587.728-2.828.728h-4.83zm2.254-1.68h2.492c.523 0 .919-.103 1.19-.308.271-.205.406-.523.406-.952 0-.41-.135-.714-.406-.91-.271-.205-.667-.308-1.19-.308h-2.492v2.478zm0-4.06h2.114c.495 0 .868-.098 1.12-.294.252-.205.378-.504.378-.896s-.126-.686-.378-.882c-.252-.205-.625-.308-1.12-.308h-2.114v2.38zm7.561 5.74l4.368-9.8h2.24l4.382 9.8h-2.38l-3.584-8.652H202L198.402 45h-2.324zm2.184-2.1l.602-1.722h5.04l.616 1.722h-6.258zm10.749 2.254c-.168 0-.346-.014-.532-.042a10.244 10.244 0 01-.588-.112l.14-1.918c.13.037.266.056.406.056.382 0 .681-.154.896-.462.214-.317.368-.77.462-1.358.093-.588.154-1.302.182-2.142l.14-3.976h7.532V45h-2.24v-8.47l.518.518h-4.326l.462-.546-.084 2.59a24.338 24.338 0 01-.196 2.562c-.103.747-.262 1.381-.476 1.904-.215.523-.509.92-.882 1.19-.374.27-.845.406-1.414.406zM220.586 45v-9.8h2.254v6.384l4.676-6.384h2.128V45h-2.24v-6.37L222.728 45h-2.142zm18.416-1.008v-6.944h-3.36l-.042 1.428c-.028.607-.07 1.18-.126 1.722a10.829 10.829 0 01-.224 1.484 4.48 4.48 0 01-.406 1.12c-.159.308-.359.527-.602.658l-2.422-.308c.336.01.611-.107.826-.35.224-.243.401-.583.532-1.022.131-.448.224-.97.28-1.568a28.61 28.61 0 00.14-1.946l.112-3.066h7.532v8.792h-2.24zm-7.504 3.038l.014-3.878h11.102v3.878h-2.1V45h-6.916v2.03h-2.1zm17.823-1.862a6.012 6.012 0 01-2.156-.378 5.169 5.169 0 01-1.708-1.064 4.985 4.985 0 01-1.12-1.61 5.097 5.097 0 01-.392-2.016c0-.728.13-1.4.392-2.016a4.874 4.874 0 011.134-1.61 5.169 5.169 0 011.708-1.064 5.86 5.86 0 012.128-.378c.774 0 1.484.126 2.128.378a5.026 5.026 0 011.694 1.064 4.9 4.9 0 011.134 1.61c.27.607.406 1.279.406 2.016 0 .728-.136 1.405-.406 2.03a4.903 4.903 0 01-1.134 1.61 5.143 5.143 0 01-1.694 1.05 5.754 5.754 0 01-2.114.378zm-.014-1.932c.438 0 .84-.075 1.204-.224a2.865 2.865 0 001.624-1.638c.158-.383.238-.807.238-1.274 0-.467-.08-.891-.238-1.274a2.865 2.865 0 00-.644-.994 2.748 2.748 0 00-.966-.644 3.255 3.255 0 00-1.218-.224c-.439 0-.845.075-1.218.224-.364.15-.686.364-.966.644-.28.28-.5.611-.658.994-.15.383-.224.807-.224 1.274 0 .457.074.882.224 1.274.158.383.373.714.644.994.28.28.606.495.98.644.373.15.779.224 1.218.224zM256.906 45v-9.8h4.564c1.139 0 2.025.22 2.66.658.635.439.952 1.064.952 1.876 0 .803-.299 1.428-.896 1.876-.597.439-1.391.658-2.38.658l.266-.588c1.101 0 1.955.22 2.562.658.607.439.91 1.073.91 1.904 0 .859-.327 1.535-.98 2.03-.644.485-1.587.728-2.828.728h-4.83zm2.254-1.68h2.492c.523 0 .919-.103 1.19-.308.271-.205.406-.523.406-.952 0-.41-.135-.714-.406-.91-.271-.205-.667-.308-1.19-.308h-2.492v2.478zm0-4.06h2.114c.495 0 .868-.098 1.12-.294.252-.205.378-.504.378-.896s-.126-.686-.378-.882c-.252-.205-.625-.308-1.12-.308h-2.114v2.38z" fill="#101010"/></svg>
